X:1393
T:Bessie's Haggies
S:NLS MS 21717 p52
M:C|
L:1/8
K:D
D2FE D2A2|BAGF      ~E3F|D2FE D2A2|BcdA      F2A2 |\
B2d2 F2A2|BAGF      ~E3F|D2F2 A2de|f2D2      F2A2:|
D2A2 d2cB|cd (c/d/e) E3F|D2A2 d2de|({d}c2)BA d3e  |\
fdec dBcA|BFGA      ~E3F|DEFG ABcA|defD      F2A2:|


